modules/zondicons/icons/queue.svg

<svg width="20" height="20" viewBox="0 0 20 20" xmlns="http://www.w3.org/2000/svg"><path d="M0 2h20v4H0V2zm0 8h20v2H0v-2zm0 6h20v2H0v-2z" fill="#000" fill-rule="evenodd"/></svg>

<?xml version="1.0" encoding="UTF-8" standalone="no"?>
<svg width="20px" height="20px" viewBox="0 0 20 20" version="1.1" xmlns="http://www.w3.org/2000/svg" xmlns:xlink="http://www.w3.org/1999/xlink">
    <!-- Generator: Sketch 3.7.2 (28276) - http://www.bohemiancoding.com/sketch -->
    <title>queue</title>
    <desc>Created with Sketch.</desc>
    <defs></defs>
    <g id="Page-1" stroke="none" stroke-width="1" fill="none" fill-rule="evenodd">
        <g id="queue" fill="#000000">
            <path d="M0,2 L20,2 L20,6 L0,6 L0,2 Z M0,10 L20,10 L20,12 L0,12 L0,10 Z M0,16 L20,16 L20,18 L0,18 L0,16 Z" id="Combined-Shape"></path>
        </g>
    </g>
</svg>
